!!!COM: Leoš [Leo Eugen] Janáček
!!!OTL: [R130_Jan-w33p13m63-71]
!!!OMV:
!!!example:
!!!work:
**kern	**dynam	**kern	**kern	**dynam	**kern	**dynam	**kern	**dynam	**kern	**kern	**dynam	**kern	**dynam	**kern	**dynam	**kern	**dynam	**kern	**dynam	**kern	**dynam	**kern	**dynam	**kern	**dynam
*grp:A	*grp:A	*grp:A	*grp:B	*grp:B	*grp:B	*grp:B	*grp:B	*grp:B	*grp:A	*grp:B	*grp:B	*grp:A	*grp:A	*grp:A	*grp:A	*grp:B	*grp:B	*grp:B	*grp:B	*grp:B	*grp:B	*grp:B	*grp:B	*grp:B	*grp:B
*part14	*part14	*part13	*part12	*part12	*part11	*part11	*part10	*part10	*part9	*part8	*part8	*part7	*part7	*part6	*part6	*part5	*part5	*part4	*part4	*part3	*part3	*part2	*part2	*part1	*part1
*staff14	*	*staff13	*staff12	*	*staff11	*	*staff10	*	*staff9	*staff8	*	*staff7	*	*staff6	*	*staff5	*	*staff4	*	*staff3	*	*staff2	*	*staff1	*
*I"Contrabass	*	*I"Violoncello	*I"Viola	*	*I"Violin II	*	*I"Violin I	*	*I"Violin Solo	*I"Timpani	*	*I"Trombones	*	*I"Horns in F	*	*I"Bassoons	*	*I"Bass Clarinet in Bb	*	*I"Clarinets in Bb	*	*I"Oboes	*	*I"Flutes	*
*I'Cb.	*	*I'Vc.	*I'Vla.	*	*I'Vln. II	*	*I'Vln. I	*	*I'Vln.	*I'Timp.	*	*I'Tbn.	*	*I'Hn.	*	*I'Bsn.	*	*I'B. Cl.	*	*I'Cl.	*	*I'Ob.	*	*I'Fl.	*
*clefF4	*	*clefF4	*clefC3	*	*clefG2	*	*clefG2	*	*clefG2	*clefF4	*	*clefF4	*	*clefG2	*	*clefF4	*	*clefG2	*	*clefG2	*	*clefG2	*	*clefG2	*
*ITrd0c0	*	*	*	*	*	*	*	*	*	*	*	*	*	*ITrd4c7	*	*	*	*ITrd1c2	*	*ITrd1c2	*	*	*	*	*
*k[b-e-a-]	*	*k[b-e-a-]	*k[b-e-a-]	*	*k[b-e-a-]	*	*k[b-e-a-]	*	*k[b-e-a-]	*k[]	*	*k[b-e-a-]	*	*k[b-]	*	*k[b-e-a-]	*	*k[b-e-a-]	*	*k[b-e-a-]	*	*k[b-e-a-]	*	*k[b-e-a-]	*
*E-:	*	*E-:	*E-:	*	*E-:	*	*E-:	*	*E-:	*C:	*	*E-:	*	*F:	*	*E-:	*	*E-:	*	*E-:	*	*E-:	*	*E-:	*
*M3/8	*	*M3/8	*M3/8	*	*M3/8	*	*M3/8	*	*M3/8	*M3/8	*	*M3/8	*	*M3/8	*	*M3/8	*	*M3/8	*	*M3/8	*	*M3/8	*	*M3/8	*
=1	=1	=1	=1	=1	=1	=1	=1	=1	=1	=1	=1	=1	=1	=1	=1	=1	=1	=1	=1	=1	=1	=1	=1	=1	=1
*	*	*	*	*	*	*	*	*	*	*	*	*	*	*^	*	*	*	*	*	*	*	*	*	*	*
*	*	*	*	*	*	*	*	*	*	*tremolo	*	*	*	*	*	*	*	*	*	*	*	*	*	*	*	*
!	!	!	!	!	!	!	!	!	!	!	!	!	!	!	!	!	!	!	!	!	!LO:TX:a:t=a2	!	!LO:TX:a:t=a2	!	!LO:TX:a:t=a2	!
4.An 4.Bn 4.d#X	.	4.e-	[4.cc-Xt	ff	[4.ccc-Xt	ff	[4.ccc-Xt	ff	4.ff	32E-XLLL	mf	4.E- 4.A- 4.c	< [	4.e-X	4.e-	< [	[4.BB-- [4.C-X	ff	[4.E-	ff	[4.bbXt	ff	[4.bbnt	ff	[4.bbnt	ff
.	.	.	.	.	.	.	.	.	.	32E-X	.	.	.	.	.	.	.	.	.	.	.	.	.	.	.	.
.	.	.	.	.	.	.	.	.	.	32E-X	.	.	.	.	.	.	.	.	.	.	.	.	.	.	.	.
.	.	.	.	.	.	.	.	.	.	32E-X	.	.	.	.	.	.	.	.	.	.	.	.	.	.	.	.
.	.	.	.	.	.	.	.	.	.	32E-X	.	.	.	.	.	.	.	.	.	.	.	.	.	.	.	.
.	.	.	.	.	.	.	.	.	.	32E-X	.	.	.	.	.	.	.	.	.	.	.	.	.	.	.	.
.	.	.	.	.	.	.	.	.	.	32E-X	.	.	.	.	.	.	.	.	.	.	.	.	.	.	.	.
.	.	.	.	.	.	.	.	.	.	32E-X	.	.	.	.	.	.	.	.	.	.	.	.	.	.	.	.
.	.	.	.	.	.	.	.	.	.	32E-X	.	.	.	.	.	.	.	.	.	.	.	.	.	.	.	.
.	.	.	.	.	.	.	.	.	.	32E-X	.	.	.	.	.	.	.	.	.	.	.	.	.	.	.	.
.	.	.	.	.	.	.	.	.	.	32E-X	.	.	.	.	.	.	.	.	.	.	.	.	.	.	.	.
.	.	.	.	.	.	.	.	.	.	32E-XJJJ	.	.	.	.	.	.	.	.	.	.	.	.	.	.	.	.
*	*	*	*	*	*	*	*	*	*	*	*	*	*	*v	*v	*	*	*	*	*	*	*	*	*	*	*
=2	=2	=2	=2	=2	=2	=2	=2	=2	=2	=2	=2	=2	=2	=2	=2	=2	=2	=2	=2	=2	=2	=2	=2	=2	=2
8%3r	.	8%3r	4.cc-_	<	4.ccc-_	<	4.ccc-_	<	8%3r	32E-XLLL	.	8%3r	.	8%3r	.	4.BB_ 4.C-_	.	4.E-_	.	4.bb_	.	4.bb_	.	4.bb_	.
.	.	.	.	.	.	.	.	.	.	32E-X	.	.	.	.	.	.	.	.	.	.	.	.	.	.	.
.	.	.	.	.	.	.	.	.	.	32E-X	.	.	.	.	.	.	.	.	.	.	.	.	.	.	.
.	.	.	.	.	.	.	.	.	.	32E-X	.	.	.	.	.	.	.	.	.	.	.	.	.	.	.
.	.	.	.	.	.	.	.	.	.	32E-X	.	.	.	.	.	.	.	.	.	.	.	.	.	.	.
.	.	.	.	.	.	.	.	.	.	32E-X	.	.	.	.	.	.	.	.	.	.	.	.	.	.	.
.	.	.	.	.	.	.	.	.	.	32E-X	.	.	.	.	.	.	.	.	.	.	.	.	.	.	.
.	.	.	.	.	.	.	.	.	.	32E-X	.	.	.	.	.	.	.	.	.	.	.	.	.	.	.
.	.	.	.	.	.	.	.	.	.	32E-X	.	.	.	.	.	.	.	.	.	.	.	.	.	.	.
.	.	.	.	.	.	.	.	.	.	32E-X	.	.	.	.	.	.	.	.	.	.	.	.	.	.	.
.	.	.	.	.	.	.	.	.	.	32E-X	.	.	.	.	.	.	.	.	.	.	.	.	.	.	.
.	.	.	.	.	.	.	.	.	.	32E-XJJJ	.	.	.	.	.	.	.	.	.	.	.	.	.	.	.
=3	=3	=3	=3	=3	=3	=3	=3	=3	=3	=3	=3	=3	=3	=3	=3	=3	=3	=3	=3	=3	=3	=3	=3	=3	=3
8%3r	.	8%3r	4.cc-]	[	4.ccc-]	[	4.ccc-]	[	8%3r	32E-XLLL	<	8%3r	.	8%3r	.	4.BB_ 4.C-_	.	4.E-_	.	4.bb_	.	4.bb_	.	4.bb_	.
.	.	.	.	.	.	.	.	.	.	32E-X	.	.	.	.	.	.	.	.	.	.	.	.	.	.	.
.	.	.	.	.	.	.	.	.	.	32E-X	.	.	.	.	.	.	.	.	.	.	.	.	.	.	.
.	.	.	.	.	.	.	.	.	.	32E-X	.	.	.	.	.	.	.	.	.	.	.	.	.	.	.
.	.	.	.	.	.	.	.	.	.	32E-X	.	.	.	.	.	.	.	.	.	.	.	.	.	.	.
.	.	.	.	.	.	.	.	.	.	32E-X	.	.	.	.	.	.	.	.	.	.	.	.	.	.	.
.	.	.	.	.	.	.	.	.	.	32E-X	.	.	.	.	.	.	.	.	.	.	.	.	.	.	.
.	.	.	.	.	.	.	.	.	.	32E-X	.	.	.	.	.	.	.	.	.	.	.	.	.	.	.
.	.	.	.	.	.	.	.	.	.	32E-X	.	.	.	.	.	.	.	.	.	.	.	.	.	.	.
.	.	.	.	.	.	.	.	.	.	32E-X	.	.	.	.	.	.	.	.	.	.	.	.	.	.	.
.	.	.	.	.	.	.	.	.	.	32E-X	.	.	.	.	.	.	.	.	.	.	.	.	.	.	.
.	.	.	.	.	.	.	.	.	.	32E-XJJJ	.	.	.	.	.	.	.	.	.	.	.	.	.	.	.
=4	=4	=4	=4	=4	=4	=4	=4	=4	=4	=4	=4	=4	=4	=4	=4	=4	=4	=4	=4	=4	=4	=4	=4	=4	=4
*k[]	*	*k[]	*k[]	*	*k[]	*	*k[]	*	*k[]	*k[]	*	*k[]	*	*k[b-]	*	*k[]	*	*k[b-e-]	*	*k[b-e-]	*	*k[]	*	*k[]	*
*C:	*	*C:	*C:	*	*C:	*	*C:	*	*C:	*C:	*	*C:	*	*F:	*	*C:	*	*B-:	*	*B-:	*	*C:	*	*C:	*
!	!	!	!	!	!	!	!	!	!	!	!	!	!	!	!	!	!	!	!	!	!	!	!	!LO:TX:t=[quarter]=120	!
!	!	!	!	!	!	!	!	!	!	!	!	!	!	!	!	!	!	!	!	!	!	!	!	!LO:TX:a:t=rit.	!
!	!	!	!	!	!	!	!	!	!LO:TX:t=[quarter]=120	!	!	!	!	!	!	!	!	!	!	!	!	!	!	!LO:TX:a:t=rit.	!
!	!	!	!	!	!	!	!	!	!LO:TX:a:B:t=a tempo	!	!	!	!	!	!	!	!	!	!	!	!	!	!	!LO:TX:a:B:t=a tempo	!
!	!	!	!	!	!	!	!	!	!LO:TX:a:B:t=Vivo	!	!	!	!	!	!	!	!	!	!	!	!	!	!	!LO:TX:a:B:t=Vivo	!
8%3r	.	8%3r	4.bt	.	4.bt	.	4.bbt	.	8%3r	32E-XLLL	[	8%3r	.	8%3r	.	4.AA_ [4.BB	.	4.E-_	< [	4.bb_	< [	4.bb_	< [	4.bb_	< [
.	.	.	.	.	.	.	.	.	.	32E-X	.	.	.	.	.	.	.	.	.	.	.	.	.	.	.
.	.	.	.	.	.	.	.	.	.	32E-X	.	.	.	.	.	.	.	.	.	.	.	.	.	.	.
.	.	.	.	.	.	.	.	.	.	32E-X	.	.	.	.	.	.	.	.	.	.	.	.	.	.	.
.	.	.	.	.	.	.	.	.	.	32E-X	.	.	.	.	.	.	.	.	.	.	.	.	.	.	.
.	.	.	.	.	.	.	.	.	.	32E-X	.	.	.	.	.	.	.	.	.	.	.	.	.	.	.
.	.	.	.	.	.	.	.	.	.	32E-X	.	.	.	.	.	.	.	.	.	.	.	.	.	.	.
.	.	.	.	.	.	.	.	.	.	32E-X	.	.	.	.	.	.	.	.	.	.	.	.	.	.	.
.	.	.	.	.	.	.	.	.	.	32E-X	.	.	.	.	.	.	.	.	.	.	.	.	.	.	.
.	.	.	.	.	.	.	.	.	.	32E-X	.	.	.	.	.	.	.	.	.	.	.	.	.	.	.
.	.	.	.	.	.	.	.	.	.	32E-X	.	.	.	.	.	.	.	.	.	.	.	.	.	.	.
.	.	.	.	.	.	.	.	.	.	32E-XJJJ	.	.	.	.	.	.	.	.	.	.	.	.	.	.	.
*	*	*	*	*	*	*	*	*	*	*Xtremolo	*	*	*	*	*	*	*	*	*	*	*	*	*	*	*
=5||	=5||	=5||	=5||	=5||	=5||	=5||	=5||	=5||	=5||	=5||	=5||	=5||	=5||	=5||	=5||	=5||	=5||	=5||	=5||	=5||	=5||	=5||	=5||	=5||	=5||
!	!	!	!	!	!	!	!	!	!LO:TX:t=[quarter-dot]=84	!	!	!	!	!	!	!	!	!	!	!	!	!	!	!LO:TX:t=[quarter-dot]=84	!
8%3r	.	8%3r	64%3gLLL	.	64%3gLLL	.	64%3ggLLL	.	8%3r	64%3BBnLLL	f <	8%3r	.	8%3r	.	4.AA_ [4.BB	.	4.E-_	.	(16%3bbL_	.	4.bb_	.	(16%3bbL_	.
.	.	.	64%3a	.	64%3a	.	64%3aa	.	.	64%3BB	.	.	.	.	.	.	.	.	.	.	.	.	.	.	.
.	.	.	64%3b	.	64%3b	.	64%3bb	.	.	64%3BB	.	.	.	.	.	.	.	.	.	.	.	.	.	.	.
.	.	.	64%3cc#XJJ	.	64%3cc#XJJ	.	64%3ccc#XJJ	.	.	64%3BBJJ	.	.	.	.	.	.	.	.	.	.	.	.	.	.	.
.	.	.	64%3bLL	.	64%3bLL	.	64%3bbLL	.	.	64%3BBLL	.	.	.	.	.	.	.	.	.	64%3bbLL]	.	.	.	64%3bbLL]	.
.	.	.	64%3cc#	.	64%3cc#	.	64%3ccc#	.	.	64%3BB	.	.	.	.	.	.	.	.	.	64%3ccc#X	.	.	.	64%3ccc#X	.
.	.	.	64%3dd#X	.	64%3dd#X	.	64%3ddd#X	.	.	64%3BB	.	.	.	.	.	.	.	.	.	64%3ddd	.	.	.	64%3ddd#X	.
.	.	.	64%3eeJJJ	.	64%3eeJJJ	.	64%3eeeJJJ	.	.	64%3BBJJJ	[	.	.	.	.	.	.	.	.	64%3eeeXJJJ	.	.	.	64%3eeeJJJ)	.
=6!|:	=6!|:	=6!|:	=6!|:	=6!|:	=6!|:	=6!|:	=6!|:	=6!|:	=6!|:	=6!|:	=6!|:	=6!|:	=6!|:	=6!|:	=6!|:	=6!|:	=6!|:	=6!|:	=6!|:	=6!|:	=6!|:	=6!|:	=6!|:	=6!|:	=6!|:
*	*	*	*	*	*	*	*	*	*	*	*	*	*	*	*	*^	*	*	*	*	*	*	*	*	*
!	!	!	!	!	!	!	!	!	!	!	!	!	!	!	!	!	!	!	!	!	!	!	!	!	!LO:TX:a:t=Solo	!
!LO:TX:a:t=pizz.	!	!LO:TX:a:t=arco	!	!	!	!	!	!	!	!	!	!	!	!	!	!	!	!	!	!	!	!	!	!	!LO:TX:b:i:t=stacc.	!
4G	f	16%3r	8%3r	.	8%3r	.	8%3r	.	8%3r	8BBn^^	.	8%3r	.	8%3r	.	4BB^^]	[4.GG^^	.	8E-^^]	.	8eee-^^)	.	8bb^^]	.	8ddd#XL	.
.	.	.	.	.	.	.	.	.	.	8r	.	.	.	.	.	.	.	.	8r	.	8r	.	8r	.	8bb	.
.	.	16%3BB 16%3D#X	.	.	.	.	.	.	.	.	.	.	.	.	.	.	.	.	.	.	.	.	.	.	.	.
8r	.	.	.	.	.	.	.	.	.	8r	.	.	.	.	.	8r	.	.	8r	.	8r	.	8r	.	8ddd#J	.
=7	=7	=7	=7	=7	=7	=7	=7	=7	=7	=7	=7	=7	=7	=7	=7	=7	=7	=7	=7	=7	=7	=7	=7	=7	=7	=7
4G	.	16%3r	8%3r	.	8%3r	.	8%3r	.	8%3r	8%3r	.	8%3r	.	8%3r	.	8%3r	4.GG^^_	.	8%3r	.	8%3r	.	8%3r	.	8ccc#XL	.
.	.	.	.	.	.	.	.	.	.	.	.	.	.	.	.	.	.	.	.	.	.	.	.	.	8aa	.
.	.	16%3BB 16%3D#X	.	.	.	.	.	.	.	.	.	.	.	.	.	.	.	.	.	.	.	.	.	.	.	.
8r	.	.	.	.	.	.	.	.	.	.	.	.	.	.	.	.	.	.	.	.	.	.	.	.	8ccc#J	.
=8	=8	=8	=8	=8	=8	=8	=8	=8	=8	=8	=8	=8	=8	=8	=8	=8	=8	=8	=8	=8	=8	=8	=8	=8	=8	=8
4G	.	16%3r	8%3r	.	8%3r	.	8%3r	.	8%3r	8%3r	.	8%3r	.	8%3r	.	8%3r	4.GG^^_	.	8%3r	.	8%3r	.	8%3r	.	8bbL	.
.	.	.	.	.	.	.	.	.	.	.	.	.	.	.	.	.	.	.	.	.	.	.	.	.	8gg	.
.	.	16%3BB 16%3D#X	.	.	.	.	.	.	.	.	.	.	.	.	.	.	.	.	.	.	.	.	.	.	.	.
8r	.	.	.	.	.	.	.	.	.	.	.	.	.	.	.	.	.	.	.	.	.	.	.	.	[8bbJ	.
=9	=9	=9	=9	=9	=9	=9	=9	=9	=9	=9	=9	=9	=9	=9	=9	=9	=9	=9	=9	=9	=9	=9	=9	=9	=9	=9
4G	.	16%3r	8%3r	.	64%3gLLL	ff	64%3ggLLL	ff	8%3r	8%3r	.	8%3r	.	8%3r	.	8%3r	4.GG^^]	.	8%3r	.	8%3r	.	8%3r	.	4.bb]	.
.	.	.	.	.	64%3a	.	64%3aa	.	.	.	.	.	.	.	.	.	.	.	.	.	.	.	.	.	.	.
.	.	.	.	.	64%3b	.	64%3bb	.	.	.	.	.	.	.	.	.	.	.	.	.	.	.	.	.	.	.
.	.	.	.	.	64%3cc#XJJ	.	64%3ccc#XJJ	.	.	.	.	.	.	.	.	.	.	.	.	.	.	.	.	.	.	.
.	.	16%3BB 16%3D#X	.	.	64%3bLL	.	64%3bbLL	.	.	.	.	.	.	.	.	.	.	.	.	.	.	.	.	.	.	.
.	.	.	.	.	64%3cc#	.	64%3ccc#	.	.	.	.	.	.	.	.	.	.	.	.	.	.	.	.	.	.	.
8r	.	.	.	.	.	.	.	.	.	.	.	.	.	.	.	.	.	.	.	.	.	.	.	.	.	.
.	.	.	.	.	64%3dd#X	.	64%3ddd#X	.	.	.	.	.	.	.	.	.	.	.	.	.	.	.	.	.	.	.
.	.	.	.	.	64%3eeJJJ	.	64%3eeeJJJ	.	.	.	.	.	.	.	.	.	.	.	.	.	.	.	.	.	.	.
*	*	*	*	*	*	*	*	*	*	*	*	*	*	*	*	*v	*v	*	*	*	*	*	*	*	*	*
=:|!	=:|!	=:|!	=:|!	=:|!	=:|!	=:|!	=:|!	=:|!	=:|!	=:|!	=:|!	=:|!	=:|!	=:|!	=:|!	=:|!	=:|!	=:|!	=:|!	=:|!	=:|!	=:|!	=:|!	=:|!	=:|!
*-	*-	*-	*-	*-	*-	*-	*-	*-	*-	*-	*-	*-	*-	*-	*-	*-	*-	*-	*-	*-	*-	*-	*-	*-	*-
!!!system-decoration: [(s1,s2,s3,s4,s5)][(s6,s7)][(s8)][(s9,s10,s11,s12,s13,s14)]
!!!CDT:
!!!CBL:
!!!CDL:
!!!CNT:
!!!AGN:
!!!MCN:
!!!MDT:
!!!MGN:
!!!MLC:
!!!MPD:
!!!MPN:
!!!ODT:
!!!PDT:
!!!excerpt-start-measure:
!!!excerpt-end-measure:
!!!excerpt-start-time:
!!!excerpt-end-time:
!!!EEV: 2020/07/28
!!!ONB: Converted from MusicXML on 2020/07/28
